teeny/solid/more-vertical.svg

<svg width="15" height="15" viewBox="0 0 15 15" fill="none" xmlns="http://www.w3.org/2000/svg">
<path fill-rule="evenodd" clip-rule="evenodd" d="M6.49999 2.5C6.49999 1.94772 6.9477 1.5 7.49999 1.5C8.05227 1.5 8.49999 1.94772 8.49999 2.5C8.49999 3.05228 8.05227 3.5 7.49999 3.5C6.9477 3.5 6.49999 3.05228 6.49999 2.5ZM6.49998 7.5C6.49998 6.94772 6.9477 6.5 7.49998 6.5C8.05227 6.5 8.49998 6.94772 8.49998 7.5C8.49998 8.05228 8.05227 8.5 7.49998 8.5C6.9477 8.5 6.49998 8.05228 6.49998 7.5ZM6.49998 12.5C6.49998 11.9477 6.9477 11.5 7.49998 11.5C8.05227 11.5 8.49998 11.9477 8.49998 12.5C8.49998 13.0523 8.05227 13.5 7.49998 13.5C6.9477 13.5 6.49998 13.0523 6.49998 12.5Z" fill="black"/>
</svg>

<svg viewBox="0 0 15 15" xmlns="http://www.w3.org/2000/svg"><path fill-rule="evenodd" d="M6.49 2.5c0-.56.44-1 1-1 .55 0 1 .44 1 1 0 .55-.45 1-1 1 -.56 0-1-.45-1-1Zm-.01 5c0-.56.44-1 1-1 .55 0 1 .44 1 1 0 .55-.45 1-1 1 -.56 0-1-.45-1-1Zm0 5c0-.56.44-1 1-1 .55 0 1 .44 1 1 0 .55-.45 1-1 1 -.56 0-1-.45-1-1Z"/></svg>
